X: 10872
T: Mrs Mc LEOD OF ELINREOCH'S STRATHSPEY
%R: strathspey
B: "Edinburgh Repository of Music" v.1 p.87 #2
F: http://digital.nls.uk/special-collections-of-printed-music/pageturner.cfm?id=87776133
Z: 2015 John Chambers <jc:trillian.mit.edu>
M: C
L: 1/16
K: D
A2 |\
d3gf2e2 d3BA2d2 | dF3d3F B2E2E2B2 |\
d3ef2d2 fa3ef3 | dcBA {c}d2F2 DDD2 D2 :|\
d/c/B |\
A2D2A2F2 A2D2D2d2 | BABc d2F2 B2E2E2d2 |
AD3A3F A2D2D2d2 | BABc d2F2 DDD2 D2d2 |\
AD3AF3 A2D2D2d2 | BABc d2F2 B2E2E2d2 |\
AD3A3F DEFG A2g2 | f3de2d2 ddd2 d2 |]

%%sep 2 1 500
%%sep 1 1 500

